22x22/apps/kindd.svg

<svg width="22" height="22" version="1.1" xmlns="http://www.w3.org/2000/svg">
 <path d="m 21,5 c -1.355929,0.505975 -1.963906,1.9985815 -1.96,3.263 0.01,3.237 -1.66951,6.049566 -4.585866,7.060453 -1.004734,0.348267 -2.121896,0.07282 -3.020946,0.619951 -1.006836,0.795851 -2.109718,1.938611 -2.43162,3.175589 C 8.3895563,19.930772 7.1695923,19.252547 6.4104318,18.984599 5.5473898,18.525724 5.323865,17.801931 5.003,16.861814 5.212661,15.826566 6.6113695,15.955183 7.252,15.205205 7.902221,14.736192 8.4913035,14.120391 9,13.5 6.4215155,13.200874 3.6690901,12.115548 2.2674132,9.829043 1.2048527,8.1284475 1,5.5 1,3.5 2.975083,4.7520765 5.5085805,5.27652 7.691258,4.8368775 9.085542,4.5439405 10.589559,4.3081445 11.931762,4.947123 12.747935,5.2707895 13.327999,5.4837755 14,6 c 0.570921,-1.2263705 1.746286,-2.5486665 3.266347,-2.4972945 0.844532,-0.010265 1.439687,0.623946 2.098734,1.039813 C 19.864367,4.7956945 20.445976,5.090082 21,5 Z" style="opacity:.2"/>
 <path d="M 21,4.5 C 19.644071,5.005975 19.036094,6.4985815 19.04,7.763 19.05,11 17.37049,13.812566 14.454134,14.823453 13.4494,15.17172 12.332238,14.896273 11.433188,15.443404 10.426352,16.239255 9.32347,17.382015 9.001568,18.618993 8.3895563,19.430772 7.1695923,18.752547 6.4104318,18.484599 5.5473898,18.025724 5.323865,17.301931 5.003,16.361814 5.212661,15.326566 6.6113695,15.455183 7.252,14.705205 7.902221,14.236192 8.4913035,13.620391 9,13 6.4215155,12.700874 3.6690901,11.615548 2.2674132,9.329043 1.2048527,7.6284475 1,5 1,3 2.975083,4.2520765 5.5085805,4.77652 7.691258,4.3368775 9.085542,4.0439405 10.589559,3.808144 11.931762,4.447123 12.747935,4.7707895 13.327999,4.9837755 14,5.5 c 0.570921,-1.2263705 1.746286,-2.5486665 3.266347,-2.4972945 0.844532,-0.010265 1.439687,0.623946 2.098734,1.039813 C 19.864367,4.2956945 20.445976,4.590082 21,4.5 Z" style="fill:#2ba5f7"/>
 <path d="m18 5a0.5 0.5 0 0 1-0.5 0.5 0.5 0.5 0 0 1-0.5-0.5 0.5 0.5 0 0 1 0.5-0.5 0.5 0.5 0 0 1 0.5 0.5z" style="opacity:.1"/>
 <path d="m18 4.5a0.5 0.5 0 0 1-0.5 0.5 0.5 0.5 0 0 1-0.5-0.5 0.5 0.5 0 0 1 0.5-0.5 0.5 0.5 0 0 1 0.5 0.5z" style="fill:#17191e"/>
 <path d="m1.0478515 5.001953c0.024106 0.3455465 0.063722 0.688993 0.1123048 1.03125l3.2578125-0.040039c0.6691564 0.1257927 0.8379086-0.8887305 0.1640623-0.986328h-3.4999999c-0.011333-0.00203-0.022734-0.00366-0.03418-0.0049zm3.4658205 1.997c-0.02811-4.109e-4 -0.056204 0.00155-0.083984 0.00586l-2.8310552 0.904367c0.1140598 0.3276455 0.2542359 0.643423 0.413086 0.951172l2.5585937-0.865305c0.6171554-0.0782068 0.5654023-0.9883512-0.0566405-0.996094zm1 1.997141c-0.0955-0.00128-0.18937 0.024811-0.270508 0.075195l-2.1660156 1.299805c0.2408412 0.252545 0.4992969 0.486773 0.7753906 0.700195l1.904297-1.142578c0.4387524-0.254322 0.2639099-0.924903-0.243164-0.932617zm1.9765625 0.998707c-0.1298993 0.0039-0.2531892 0.05816-0.34375 0.151367l-1.824219 1.824535c0.324775 0.156617 0.6612865 0.289841 1.00293 0.411133l1.52832-1.528637c0.3270508-0.317908 0.092621-0.871842-0.363281-0.858398zm2.0000005 1.000316c-0.129899 0.0039-0.253189 0.05816-0.34375 0.151367l-1.5000005 1.5c-0.029554 0.02861-0.055466 0.06075-0.077148 0.0957 0.3923865 0.09128 0.7847695 0.165602 1.176758 0.21875l1.1074225-1.107422c0.327051-0.317908 0.09262-0.871843-0.363282-0.858398z" style="opacity:.2"/>
 <path d="M 17.266601,3.0029295 C 15.746541,2.9515575 14.570921,4.2736295 14,5.5 13.327999,4.9837755 12.747813,4.770932 11.931641,4.4472655 10.589438,3.808287 9.085691,4.043977 7.691406,4.336914 5.5087285,4.7765565 2.975083,4.2521235 1,3.000047 1,3.1669275 1.0036,3.335607 1.00684,3.503953 2.9809536,4.7518575 5.5111915,5.2760615 7.69141,4.836914 9.085695,4.543977 10.589441,4.308287 11.931645,4.9472655 12.747813,5.270932 13.327999,5.4837755 14,6 c 0.570921,-1.2263705 1.746541,-2.5484425 3.266601,-2.4970705 0.844532,-0.010265 1.439586,0.6241725 2.098633,1.0400395 0.283112,0.143559 0.593168,0.2923135 0.90918,0.3847655 C 20.488946,4.754192 20.725126,4.602571 21,4.5 20.445976,4.590082 19.864521,4.296145 19.365234,4.042969 18.706187,3.627102 18.111133,2.992666 17.266601,3.0029295 Z M 8.621094,13.441406 c -0.4155625,0.464329 -0.8742625,0.90671 -1.369141,1.263672 -0.6406305,0.749978 -2.0393625,0.621001 -2.2490235,1.65625 0.027885,0.0817 0.061341,0.159882 0.09375,0.238281 C 5.474976,15.846154 6.6721825,15.883808 7.251953,15.205078 7.902174,14.736064 8.4913035,14.120391 9,13.5 8.8742985,13.48542 8.747445,13.459775 8.621094,13.441406 Z" style="fill:#f4f4f7;opacity:.2"/>
</svg>

<svg width="22" height="22" xmlns="http://www.w3.org/2000/svg"><path d="M21 5c-1.356.506-1.964 1.999-1.96 3.263.01 3.237-1.67 6.05-4.586 7.06-1.005.349-2.122.073-3.02.62-1.008.796-2.11 1.939-2.432 3.176-.612.812-1.832.134-2.592-.134-.863-.46-1.086-1.183-1.407-2.123.21-1.035 1.608-.907 2.249-1.657.65-.469 1.24-1.085 1.748-1.705-2.578-.3-5.33-1.384-6.733-3.671C1.205 8.129 1 5.5 1 3.5c1.975 1.252 4.509 1.777 6.691 1.337 1.395-.293 2.899-.529 4.24.11.817.324 1.397.537 2.069 1.053.57-1.226 1.746-2.549 3.266-2.497.845-.01 1.44.624 2.1 1.04.498.253 1.08.547 1.634.457z" style="opacity:.2"/><path d="M21 4.5c-1.356.506-1.964 1.999-1.96 3.263.01 3.237-1.67 6.05-4.586 7.06-1.005.349-2.122.073-3.02.62-1.008.796-2.11 1.939-2.432 3.176-.612.812-1.832.134-2.592-.134-.863-.46-1.086-1.183-1.407-2.123.21-1.035 1.608-.907 2.249-1.657C7.902 14.236 8.492 13.62 9 13c-2.578-.3-5.33-1.384-6.733-3.671C1.205 7.629 1 5 1 3c1.975 1.252 4.509 1.777 6.691 1.337 1.395-.293 2.899-.529 4.24.11.817.324 1.397.537 2.069 1.053.57-1.226 1.746-2.549 3.266-2.497.845-.01 1.44.624 2.1 1.04.498.253 1.08.547 1.634.457z" style="fill:#2ba5f7"/><path d="M18 5a.5.5 0 0 1-.5.5.5.5 0 0 1-.5-.5.5.5 0 0 1 .5-.5.5.5 0 0 1 .5.5z" style="opacity:.1"/><path d="M18 4.5a.5.5 0 0 1-.5.5.5.5 0 0 1-.5-.5.5.5 0 0 1 .5-.5.5.5 0 0 1 .5.5z" style="fill:#17191e"/><path d="M1.048 5.002c.024.345.064.689.112 1.031l3.258-.04c.67.126.838-.889.164-.986h-3.5a.498.498 0 0 0-.034-.005zm3.466 1.997a.5.5 0 0 0-.084.006l-2.831.904c.114.328.254.644.413.951l2.558-.865c.617-.078.566-.988-.056-.996zm1 1.997a.5.5 0 0 0-.27.075l-2.167 1.3c.241.253.5.487.776.7L5.757 9.93c.439-.255.264-.925-.243-.933zm1.976.999a.5.5 0 0 0-.344.151l-1.824 1.825c.325.156.662.29 1.003.41l1.529-1.528a.5.5 0 0 0-.364-.858zm2 1a.5.5 0 0 0-.344.151l-1.5 1.5a.5.5 0 0 0-.077.096c.393.091.785.166 1.177.219l1.108-1.107a.5.5 0 0 0-.364-.859z" style="opacity:.2"/><path d="M17.267 3.003C15.747 2.952 14.57 4.273 14 5.5c-.672-.516-1.252-.73-2.068-1.053-1.343-.639-2.846-.403-4.24-.11C5.508 4.777 2.974 4.252 1 3c0 .167.004.336.007.504C2.98 4.752 5.51 5.276 7.69 4.837c1.395-.293 2.898-.529 4.24.11.817.324 1.397.537 2.069 1.053.57-1.226 1.747-2.548 3.267-2.497.844-.01 1.44.624 2.098 1.04.283.144.593.292.91.385.214-.174.45-.325.725-.428-.554.09-1.135-.204-1.635-.457-.659-.416-1.254-1.05-2.098-1.04zM8.62 13.44a8.745 8.745 0 0 1-1.369 1.264c-.64.75-2.04.621-2.25 1.656.029.082.062.16.095.239.378-.754 1.575-.716 2.155-1.395.65-.469 1.24-1.085 1.748-1.705-.126-.015-.253-.04-.379-.059z" style="fill:#f4f4f7;opacity:.2"/></svg>
